img/pseudo-07.svg

<svg width="36" height="51" viewBox="0 0 36 51" fill="none" xmlns="http://www.w3.org/2000/svg">
<path opacity="0.08" d="M35.8895 0.249998L35.3995 4.205C35.2362 5.395 34.9795 6.35167 34.6295 7.075C34.2795 7.79833 33.9529 8.41666 33.6495 8.93L12.1595 47.885C11.6229 48.7483 10.9345 49.4833 10.0945 50.09C9.25453 50.6967 8.1812 51 6.87453 51H0.119531L21.9245 12.885C22.4845 12.0217 23.0445 11.24 23.6045 10.54C24.1645 9.81667 24.7712 9.15167 25.4245 8.545H4.24953C3.71286 8.545 3.2462 8.335 2.84953 7.915C2.4762 7.47167 2.32453 6.98167 2.39453 6.445L3.16453 0.249998H35.8895Z" fill="#262D33"/>
</svg>

<svg width="36" height="51" fill="none" xmlns="http://www.w3.org/2000/svg"><path opacity=".08" d="M35.89.25l-.49 3.955c-.164 1.19-.42 2.147-.77 2.87a25.66 25.66 0 01-.98 1.855L12.16 47.885a7.74 7.74 0 01-2.066 2.205c-.84.607-1.913.91-3.22.91H.12l21.805-38.115a29.15 29.15 0 011.68-2.345 16.501 16.501 0 011.82-1.995H4.25c-.537 0-1.004-.21-1.4-.63-.374-.443-.525-.933-.455-1.47L3.165.25h32.724z" fill="#262D33"/></svg>
